X: 1
T: Esther's
M: 4/4
L: 1/8
R: reel
K: Dmaj
|:g3g fedf|efga gfed|eBBB dBAF|GBAF GFED:|
|:CDEF GABc|dDDD ADFD|EFGA BAGF|GBAFGFED:|
